!!!SOCIAL_FUNCTION:	southern dance songs
!!!PDT:	1913
!!!OTL: No_121_Southern_Dance_Song.krn
!!!REG: Great_Lakes
!!!LANG: Non-Tone
!!!LING_GROUP: Algonquin
**kern	**kern
*staff2	*staff1
=1-	=1-
*clefF4	*clefF4
*k[b-e-a-d-]	*k[b-e-a-d-]
*M3/4	*M3/4
12GG^/	8e-\L
12r	.
.	16B-\L
12GG/	.
.	16B-\JJ
12GG^/	4.e-\
12r	.
12GG/	.
12GG^/	.
12r	.
.	8B-\
12GG/	.
=2||	=2||
*M2/4	*M2/4
2r	8B-\L
.	16A-\L
.	16A-\JJ
.	4B-\
=3||	=3||
*M3/4	*M3/4
2.r	8B-\L
.	16B-\L
.	16B-\JJ
.	4.B-\
.	8A-\
=4||	=4||
*M2/4	*M2/4
2r	8A-\L
.	16E-\L
.	16E-\JJ
.	4A-\
=5||	=5||
*M3/4	*M3/4
2.r	12A-\L
.	12A-\
.	12A-\J
.	12A-\L
.	[12A-\
.	12A-\J]
.	4A-\
=6||	=6||
*M2/4	*M2/4
2r	8A-\L
.	8A-\J
.	4A-\
=7||	=7||
*M3/4	*M3/4
2.r	12A-\L
.	12A-\
.	12A-\J
.	12A-\L
.	[12A-\
.	12A-\J]
.	4A-\
=8||	=8||
*M2/4	*M2/4
2r	8A-\L
.	8A-\J
.	4A-\
=9||	=9||
*M3/4	*M3/4
2.r	12A-\L
.	12A-\
.	12A-\J
.	12A-\L
.	[12A-\
.	12A-\J]
.	4A-\
=10||	=10||
*M2/4	*M2/4
2r	8A-\L
.	8A-\J
.	4A-\
==	==
*-	*-
